X: 29
T:Saints
% Nottingham Music Database
S:Kevin Briggs, via EF
M:4/4
L:1/4
K:G
GB c|"G"d4-|"G"dG Bc|"G"d4-|"G"dG Bc|"G"d2 B2|"G"G2 B2|"A7"A4-|
"D7"A2 BA|"G"G3G|"G7"B2 d2|"C"dc3-|"Cm"c2 Bc|"G"d2 B2|"A7"G2 "D7"A2|"G"G4-|\
"G"G||


